build/img/sprites/4.8.svg

<svg width="62" height="28" viewBox="0 0 62 28" fill="none" xmlns="http://www.w3.org/2000/svg">
<path d="M0.976562 21.8761V17.0478L12.7291 0.69148H20.402L8.98628 17.0478L5.46799 15.9998H25.9414V21.8761H0.976562ZM14.8251 26.8915V21.8761L15.0497 15.9998V11.5458H22.0489V26.8915H14.8251Z" fill="white"/>
<path d="M32.1818 27.2283C30.984 27.2283 29.9735 26.8291 29.15 26.0306C28.3266 25.2322 27.9149 24.2216 27.9149 22.9989C27.9149 21.7263 28.3266 20.7158 29.15 19.9672C29.9735 19.1937 30.984 18.8069 32.1818 18.8069C33.3795 18.8069 34.39 19.1937 35.2135 19.9672C36.0369 20.7158 36.4486 21.7263 36.4486 22.9989C36.4486 24.2216 36.0369 25.2322 35.2135 26.0306C34.39 26.8291 33.3795 27.2283 32.1818 27.2283Z" fill="white"/>
<path d="M50.3709 27.4155C48.1002 27.4155 46.1165 27.0786 44.4197 26.4049C42.723 25.7312 41.388 24.783 40.4149 23.5603C39.4667 22.3127 38.9926 20.853 38.9926 19.1812C38.9926 17.5343 39.4667 16.137 40.4149 14.9892C41.388 13.8164 42.723 12.9306 44.4197 12.3318C46.1414 11.708 48.1252 11.3961 50.3709 11.3961C52.6166 11.3961 54.5878 11.708 56.2846 12.3318C58.0063 12.9306 59.3413 13.8164 60.2894 14.9892C61.2626 16.137 61.7492 17.5343 61.7492 19.1812C61.7492 20.853 61.2751 22.3127 60.3269 23.5603C59.3787 24.783 58.0437 25.7312 56.322 26.4049C54.6253 27.0786 52.6415 27.4155 50.3709 27.4155ZM50.3709 22.2129C51.5686 22.2129 52.5168 21.926 53.2154 21.3521C53.9391 20.7782 54.3009 19.9797 54.3009 18.9566C54.3009 17.9585 53.9391 17.1725 53.2154 16.5986C52.5168 15.9998 51.5686 15.7003 50.3709 15.7003C49.1732 15.7003 48.2125 15.9998 47.4889 16.5986C46.7902 17.1725 46.4409 17.9585 46.4409 18.9566C46.4409 19.9797 46.7902 20.7782 47.4889 21.3521C48.2125 21.926 49.1732 22.2129 50.3709 22.2129ZM50.3709 15.0641C48.3248 15.0641 46.5157 14.7771 44.9437 14.2032C43.3967 13.6293 42.174 12.8059 41.2757 11.7329C40.3774 10.635 39.9283 9.325 39.9283 7.80291C39.9283 6.23091 40.365 4.88348 41.2383 3.76062C42.1366 2.63777 43.3717 1.76443 44.9437 1.14062C46.5157 0.491862 48.3248 0.16748 50.3709 0.16748C52.4419 0.16748 54.251 0.491862 55.798 1.14062C57.37 1.76443 58.5927 2.63777 59.466 3.76062C60.3643 4.88348 60.8134 6.23091 60.8134 7.80291C60.8134 9.325 60.3643 10.635 59.466 11.7329C58.5927 12.8059 57.37 13.6293 55.798 14.2032C54.226 14.7771 52.417 15.0641 50.3709 15.0641ZM50.3709 10.8721C51.3191 10.8721 52.0801 10.635 52.654 10.1609C53.2279 9.66186 53.5149 8.98815 53.5149 8.13977C53.5149 7.24148 53.2154 6.55529 52.6166 6.08119C52.0427 5.6071 51.2941 5.37005 50.3709 5.37005C49.4476 5.37005 48.6991 5.6071 48.1252 6.08119C47.5513 6.55529 47.2643 7.24148 47.2643 8.13977C47.2643 8.98815 47.5513 9.66186 48.1252 10.1609C48.6991 10.635 49.4476 10.8721 50.3709 10.8721Z" fill="white"/>
</svg>

<svg width="62" height="28" viewBox="0 0 62 28" fill="none" xmlns="http://www.w3.org/2000/svg"><path d="M.977 21.876v-4.828L12.729.69h7.673L8.986 17.048 5.468 16h20.473v5.876H.977zm13.848 5.015v-5.015L15.05 16v-4.454h6.999v15.346h-7.224zm17.357.337c-1.198 0-2.209-.399-3.032-1.197-.823-.799-1.235-1.81-1.235-3.032 0-1.273.412-2.283 1.235-3.032.824-.773 1.834-1.16 3.032-1.16 1.197 0 2.208.387 3.032 1.16.823.749 1.235 1.76 1.235 3.032 0 1.223-.412 2.233-1.235 3.032-.824.798-1.834 1.197-3.032 1.197zm18.188.188c-2.27 0-4.253-.337-5.95-1.011-1.697-.674-3.032-1.622-4.005-2.845-.948-1.247-1.422-2.707-1.422-4.379 0-1.647.474-3.044 1.422-4.192.973-1.173 2.308-2.058 4.005-2.657 1.721-.624 3.705-.936 5.95-.936 2.247 0 4.218.312 5.915.936 1.721.599 3.056 1.484 4.004 2.657.974 1.148 1.46 2.545 1.46 4.192 0 1.672-.474 3.132-1.422 4.38-.948 1.222-2.283 2.17-4.005 2.844-1.697.674-3.68 1.01-5.951 1.01zm0-5.203c1.199 0 2.147-.287 2.845-.86.724-.575 1.086-1.373 1.086-2.396 0-.998-.362-1.785-1.086-2.358-.698-.6-1.646-.899-2.844-.899s-2.159.3-2.882.899c-.699.573-1.048 1.36-1.048 2.358 0 1.023.35 1.821 1.048 2.395.724.574 1.684.86 2.882.86zm0-7.149c-2.045 0-3.854-.287-5.426-.86-1.547-.575-2.77-1.398-3.668-2.471-.899-1.098-1.348-2.408-1.348-3.93 0-1.572.437-2.92 1.31-4.042.899-1.123 2.134-1.997 3.706-2.62 1.572-.65 3.38-.974 5.427-.974 2.07 0 3.88.325 5.427.974 1.572.623 2.795 1.497 3.668 2.62.898 1.122 1.347 2.47 1.347 4.042 0 1.522-.449 2.832-1.347 3.93-.873 1.073-2.096 1.896-3.668 2.47-1.572.574-3.381.861-5.427.861zm0-4.192c.95 0 1.71-.237 2.284-.711.574-.5.86-1.173.86-2.021 0-.899-.299-1.585-.897-2.059-.574-.474-1.323-.711-2.246-.711s-1.672.237-2.246.711c-.574.474-.86 1.16-.86 2.059 0 .848.286 1.522.86 2.02.574.475 1.323.712 2.246.712z" fill="#fff"/></svg>
